src/assets/graphics/icons/settings.svg

<svg xmlns="http://www.w3.org/2000/svg" data-name="Layer 1" viewBox="0 0 24 24" width="512" height="512" fill="#fff"><path d="M21 12a9.143 9.143 0 0 0-.15-1.645L23.893 8.6l-3-5.2-3.044 1.759A9 9 0 0 0 15 3.513V0H9v3.513a9 9 0 0 0-2.849 1.646L3.107 3.4l-3 5.2 3.043 1.755a9.1 9.1 0 0 0 0 3.29L.107 15.4l3 5.2 3.044-1.758A9 9 0 0 0 9 20.487V24h6v-3.513a9 9 0 0 0 2.849-1.646l3.044 1.759 3-5.2-3.043-1.755A9.143 9.143 0 0 0 21 12zm-6 0a3 3 0 1 1-3-3 3 3 0 0 1 3 3z"/></svg>

<?xml version="1.0" encoding="UTF-8"?>
<svg xmlns="http://www.w3.org/2000/svg" id="Layer_1" data-name="Layer 1" viewBox="0 0 24 24" width="512" height="512" fill="#fff"><path d="M21,12a9.143,9.143,0,0,0-.15-1.645L23.893,8.6l-3-5.2L17.849,5.159A9,9,0,0,0,15,3.513V0H9V3.513A9,9,0,0,0,6.151,5.159L3.107,3.4l-3,5.2L3.15,10.355a9.1,9.1,0,0,0,0,3.29L.107,15.4l3,5.2,3.044-1.758A9,9,0,0,0,9,20.487V24h6V20.487a9,9,0,0,0,2.849-1.646L20.893,20.6l3-5.2L20.85,13.645A9.143,9.143,0,0,0,21,12Zm-6,0a3,3,0,1,1-3-3A3,3,0,0,1,15,12Z"/></svg>
